!!!!SEGMENT: pl-wtm--r-1564--003_stefani-jozef--stabat-mater-aria.krn
!!!cenid: 18xx:2884
!!!COM: Stefani, Józef
!!!COM-rismid: pe30024097
!!!CDT: 1800/04/16-1876/03/19
!!!CNT: Polish
!!!OTL: Stabat Mater – Andantino
!!!PDT:
!!!AGN: Sacred
!!!SMS-siglum: PL-Wtm
!!!SMS-shelfmark: R 1564
!!!SMS-shelfwork: 001-003 M
!!!SMS-variant:
!!!SMS-altvar:
!!!NIFC-rismid: 1001115293
!!!URL-scan: http://repozytorium.nifc.pl/skany/pl-wtm-nut--r1564
!!!ONB-nifc: UWAGA: części Stabat Mater: 1. Andante, 2. Andantino, 3. Aria (Adagio), 4. Adagio, 5. Aria per il Basso, 6. Adagio, 7. Larghetto, 8. Aria per il Tenore, 9. Duetino (per il Soprano e Alto con Choro), 10. Arietta per il Alto, 11. Andantino (w źródle jako No. 10 ½), 12. Finale (w źródle jako No. 11)
!!!OMD:Adagio
**kern	**dynam	**kern	**dynam	**kern	**text	**dynam	**kern	**dynam	**kern	**dynam	**kern	**dynam	**kern	**dynam	**kern	**dynam	**kern	**dynam	**kern	**dynam
*part10	*part10	*part9	*part9	*part8	*part8	*part8	*part7	*part7	*part6	*part6	*part5	*part5	*part4	*part4	*part3	*part3	*part2	*part2	*part1	*part1
*staff10	*	*staff9	*	*staff8	*staff8	*	*staff7	*	*staff6	*	*staff5	*	*staff4	*	*staff3	*	*staff2	*	*staff1	*
*I"C: Baſsi	*	*I"Violoncelli	*	*I"Soprano	*	*	*I"Viole	*	*I"Violini	*	*I"Violini	*	*I"Fagotti	*	*I"Clarinetti	*	*I"Oboe	*	*I"Flauto	*
*clefF4	*	*clefF4	*	*clefG2	*	*	*clefC3	*	*clefG2	*	*clefG2	*	*clefF4	*	*clefG2	*	*clefG2	*	*clefG2	*
*Trd0c0	*	*	*	*	*	*	*	*	*	*	*	*	*	*	*	*	*	*	*	*
*k[b-e-]	*	*k[b-e-]	*	*k[b-e-]	*	*	*k[b-e-]	*	*k[b-e-]	*	*k[b-e-]	*	*k[b-e-]	*	*k[b-e-]	*	*k[b-e-]	*	*k[b-e-]	*
*M3/4	*	*M3/4	*	*M3/4	*	*	*M3/4	*	*M3/4	*	*M3/4	*	*M3/4	*	*M3/4	*	*M3/4	*	*M3/4	*
*all\left or centre or right	*	*all\left or centre or right	*	*all\left or centre or right	*	*	*all\left or centre or right	*	*all\left or centre or right	*	*all\left or centre or right	*	*all\left or centre or right	*	*all\left or centre or right	*	*all\left or centre or right	*	*all\left or centre or right	*
*2\right	*	*2\right	*	*2\right	*	*	*2\right	*	*2\right	*	*2\right	*	*2\right	*	*2\right	*	*2\right	*	*2\right	*
*	*	*	*	*	*	*	*	*	*	*	*	*	*^	*	*	*	*	*	*	*
4r	.	8.A\L	sf	4r	.	.	8.A/L	sf	8.f/L	.	8.cc|\L	sf	4rEE	8.A/L	.	4r	.	8.ff\L	.	8.ccc\L	sf
.	.	16A\Jk	p	.	.	.	16A/Jk	p	16f/Jk	.	16cc|\Jk	p	.	16A/Jk	.	.	.	16ff\Jk	.	16ccc\Jk	p
*	*	*	*	*	*	*	*	*	*	*	*	*	*v	*v	*	*	*	*	*	*	*
=1	=1	=1	=1	=1	=1	=1	=1	=1	=1	=1	=1	=1	=1	=1	=1	=1	=1	=1	=1	=1
*	*	*	*	*	*	*	*	*	*	*	*	*	*	*	*^	*	*	*	*	*
4r	.	4.B-\	.	2.r	.	.	4.B-/	.	4.f/	.	4.dd-X\	.	4.B-/	.	4r	2ryy	.	4.ff\	.	[4ddd-X\	.
4r	.	.	.	.	.	.	.	.	.	.	.	.	.	.	4r	.	.	.	.	8ddd-\]	.
.	.	8r	.	.	.	.	8r	.	8r	.	8r	.	8r	.	.	.	.	8r	.	8r	.
8.G-X\L	.	8.G-X\L	.	.	.	.	8.g-X\L	.	8.b-/L	.	8.dd-|\L	.	8.G-X\L 8.B-	.	8.dd/L	8.b-\L	p	8.bb-\L	.	8.ddd-\L	.
16G-\Jk	.	16G-\Jk	.	.	.	.	16g-\Jk	.	16b-/Jk	.	16ee-|\Jk	.	16G-\Jk 16B-	.	16ee-/Jk	16b-\Jk	.	16bb-\Jk	.	16eee-\Jk	.
=2	=2	=2	=2	=2	=2	=2	=2	=2	=2	=2	=2	=2	=2	=2	=2	=2	=2	=2	=2	=2	=2
*	*	*	*	*	*	*	*	*	*	*	*	*	*^	*	*	*	*	*	*	*	*
!	!	!	!	!	!	!	!	!	!	!	!	!	!	!	!	!LO:N:vis=4	!	!	!	!	!	!
4.F\	.	4.F\	.	2.r	.	.	4.f\	.	4.a/	.	(4ff\	.	4.F\ 4.c	2ryy	.	4.ff/	4.a\	.	4.aa\	.	(4fff\	.
.	.	.	.	.	.	.	.	.	.	.	8cc\)	.	.	.	.	.	.	.	.	.	8ccc\)	.
8r	.	8r	.	.	.	.	8r	.	8r	.	8r	.	8r	.	.	8cc/	4.ryy	.	8r	.	8r	.
4r	.	8.A\L	sf	.	.	.	8.A/L	sf	8.f/L	sf	8.cc\L	.	8.A/L	4r	.	4r	.	.	8.ff\L	.	8.ccc\L	sf
.	.	16A\Jk	p	.	.	.	16A/Jk	p	16f/Jk	p	16cc\Jk	.	16A/Jk	.	.	.	.	.	16ff\Jk	.	16ccc\Jk	p
=3	=3	=3	=3	=3	=3	=3	=3	=3	=3	=3	=3	=3	=3	=3	=3	=3	=3	=3	=3	=3	=3	=3
4r	.	4.B-\	.	2.r	.	.	4.B-/	.	4.f/	.	4.dd-X\	.	4.B-/	4r	.	4r	2ryy	.	4.ff\	.	4.ddd-X\	.
4r	.	.	.	.	.	.	.	.	.	.	.	.	.	4rC	.	4r	.	.	.	.	.	.
.	.	8r	.	.	.	.	8r	.	8r	.	8r	.	8r	.	.	.	.	.	8r	.	8r	.
8.G-X\L	.	8.G-X\L	f	.	.	.	8.g-X\L	.	8.b-/L	f	8.dd-\L	f	8.G-X\L 8.B-	4ryy	.	8.dd/L	8.b-\L	f	8.bb-\L	.	8.ddd-\L	f
16G-\Jk	.	16G-\Jk	.	.	.	.	16g-\Jk	.	16b-/Jk	.	16ee-\Jk	.	16G-\Jk 16B-	.	.	16ee-/Jk	16b-\Jk	.	16bb-\Jk	.	16ddd-\Jk	.
*	*	*	*	*	*	*	*	*	*	*	*	*	*v	*v	*	*	*	*	*	*	*	*
*	*	*	*	*	*	*	*	*	*	*	*	*	*	*	*v	*v	*	*	*	*	*
=4	=4	=4	=4	=4	=4	=4	=4	=4	=4	=4	=4	=4	=4	=4	=4	=4	=4	=4	=4	=4
!!LO:LB:g=original
!	!	!LO:TX:t=P:problem:dublowanie partii z dołu oznaczone dwiema ukośnymi kreskami	!	!	!	!	!	!	!	!	!	!	!	!	!	!	!	!	!	!
(8F\L	.	(yy8Fyy\L	.	2.r	.	.	(8f\L	.	8a/	.	8ff\	.	8F\ 8c	.	8a\ 8ff	.	8aa\	.	8fff\	.
8En\	.	8Enyy\	.	.	.	.	8en\	.	8r	.	8r	.	8r	.	8r	.	8r	.	8r	.
8F\	.	8Fyy\	.	.	.	.	8f\	.	4r	.	4r	.	4r	.	4r	.	4r	.	4r	.
8E-X\	.	8E-Xyy\	.	.	.	.	8e-X\	.	.	.	.	.	.	.	.	.	.	.	.	.
8D\	.	8Dyy\	.	.	.	.	8d\	.	4r	.	4r	.	4r	.	4r	.	4r	.	4r	.
8C\J)	.	8Cyy\J)yy	.	.	.	.	8c\J)	.	.	.	.	.	.	.	.	.	.	.	.	.
=5	=5	=5	=5	=5	=5	=5	=5	=5	=5	=5	=5	=5	=5	=5	=5	=5	=5	=5	=5	=5
*	*	*	*	*	*	*	*	*	*	*	*	*	*^	*	*^	*	*	*	*	*
(8BB-\L	p	(yy8BB-yy\L	pyy	2dd\	Quis	.	(<8B-/L	p	(2b-\	.	(2dd\	p	2.rAA	(>2B-/	p	(2b-/	2f\	p	(2dd\	.	(2fff\	p
8D\	.	8Dyy\	.	.	.	.	8d/J	.	.	.	.	.	.	.	.	.	.	.	.	.	.	.
8F\	.	8Fyy\	.	.	.	.	4f\)	.	.	.	.	.	.	.	.	.	.	.	.	.	.	.
8B-\J)	.	8B-yy\J)	.	.	.	.	.	.	.	.	.	.	.	.	.	.	.	.	.	.	.	.
!LO:TX:t=P:problem:mixed beam	!	!LO:TX:t=P:problem:mixed beam	!	!	!	!	!	!	!	!	!	!	!	!	!	!	!	!	!	!	!	!
(8BBn/L	.	(yy8BBnyy/L	.	4gg\	non	.	4d\	.	4g/)	.	4gg\)	.	.	4Bn/)	.	4g/)	4d\	.	4gg\)	.	4ggg\)	.
8Bn\J)	.	8Bnyy\J)	.	.	.	.	.	.	.	.	.	.	.	.	.	.	.	.	.	.	.	.
*	*	*	*	*	*	*	*	*	*	*	*	*	*	*	*	*v	*v	*	*	*	*	*
=6	=6	=6	=6	=6	=6	=6	=6	=6	=6	=6	=6	=6	=6	=6	=6	=6	=6	=6	=6	=6	=6
(8C\L	.	(yy8Cyy\L	.	4ff\	pos-	.	2.c\	.	(>2g/	.	(4ff\	.	2.rAA	(>2c\	.	(>2c/ 2g	.	(4ff\	.	(4fff\	.
8E-\	.	8E-yy\	.	.	.	.	.	.	.	.	.	.	.	.	.	.	.	.	.	.	.
8G\	.	8Gyy\	.	4ee-\	-set	.	.	.	.	.	4ee-\)	.	.	.	.	.	.	4ee-\)	.	4eee-\)	.
8c\J)	.	8cyy\J)yy	.	.	.	.	.	.	.	.	.	.	.	.	.	.	.	.	.	.	.
!LO:TX:t=P:problem:mixed beam	!	!LO:TX:t=P:problem:mixed beam	!	!	!	!	!	!	!	!	!	!	!	!	!	!	!	!	!	!	!
(8AA/L	.	(yy8AAyy/L	.	8cc\	con-	.	.	.	4f/)	.	(8cc\L	.	.	4A\	.	4c/ 4f	.	(8cc\L	.	(8ccc\L	.
8A\J)	.	8A\J)yy	.	8ff\	-tri-	.	.	.	.	.	8ff\J)	.	.	.	.	.	.	8ff\J)	.	8fff\J)	.
=7	=7	=7	=7	=7	=7	=7	=7	=7	=7	=7	=7	=7	=7	=7	=7	=7	=7	=7	=7	=7	=7
(8BB-/L	.	(yy8BB-yy/L	.	4ee-\	-sta-	.	4.B-/	.	4.f/	.	(4ee-\	.	2.rAA	4.B-\)	.	4.B-/) 4.f	.	4ee-\	.	(4eee-\	.
8FF/	.	8FFyy/	.	.	.	.	.	.	.	.	.	.	.	.	.	.	.	.	.	.	.
8BB-/	.	8BB-yy/	.	8dd\	-ri,	.	.	.	.	.	8dd\)	.	.	.	.	.	.	8dd\	.	8ddd\)	.
8D/J)	.	8Dyy/J)yy	.	8r	.	.	8r	.	8r	.	8r	.	.	8rA	.	8r	.	8r	.	8r	.
(8G\L	.	(yy8Gyy\L	.	(4dd\	pi-	.	(8g\L	.	(8b-/L	.	(4dd\	.	.	4rA	.	4r	.	4r	.	4r	.
8F\J	.	8Fyy\J	.	.	.	.	8f\J	.	8a/J	.	.	.	.	.	.	.	.	.	.	.	.
*	*	*	*	*	*	*	*	*	*	*	*	*	*v	*v	*	*	*	*	*	*	*
=8	=8	=8	=8	=8	=8	=8	=8	=8	=8	=8	=8	=8	=8	=8	=8	=8	=8	=8	=8	=8
4.E-\)	.	4.E-yy\)yy	.	8dd\	.	.	(4.e-\)	.	[2.g/)	.	8dd\	.	2.r	.	2.r	.	2.r	.	2.r	.
.	.	.	.	4cc\	.	.	.	.	.	.	4cc\)	.	.	.	.	.	.	.	.	.
!	!	!	!	!	!	!	!	!	!	!	!	!LO:HP:a	!	!	!	!	!	!	!	!
(<8D\L	.	(yy8Dyy\L	.	(8bn\)	.	.	8d\	<	.	.	(8bn\	<	.	.	.	.	.	.	.	.
8E-\	.	8E-yy\	.	8cc\L	-am	.	8d\L	.	.	.	8cc\L	.	.	.	.	.	.	.	.	.
8BBn\J	.	8BBnyy\J)yy	.	8dd\J)	.	.	8Bn\J)	[[	.	.	8dd\J)	[[	.	.	.	.	.	.	.	.
=9	=9	=9	=9	=9	=9	=9	=9	=9	=9	=9	=9	=9	=9	=9	=9	=9	=9	=9	=9	=9
!!LO:PB:g=original
8C/L	.	(yy8Cyy/L	.	4.ff\	Mat-	.	(8c\L	.	2g/]	.	(4.ff\	.	2.r	.	2.r	.	2.r	.	2.r	.
8BBn/	.	8BBnyy/	.	.	.	.	8Bn\	.	.	.	.	.	.	.	.	.	.	.	.	.
8C/)	.	8Cyy/)yy	.	.	.	.	8c\)	.	.	.	.	.	.	.	.	.	.	.	.	.
8C|/	.	8Cyy|/	.	8ee-\	-rem	.	8d|\	.	.	.	8ee-\L	.	.	.	.	.	.	.	.	.
(8D/	.	(yy8Dyy/	.	8dd\	con-	.	(8e-\	.	4g/	.	8dd\	.	.	.	.	.	.	.	.	.
8E-/J	.	8E-yy/Jyy	.	8cc\	-tem-	.	8f\J)	.	.	.	8cc\J)	.	.	.	.	.	.	.	.	.
=10	=10	=10	=10	=10	=10	=10	=10	=10	=10	=10	=10	=10	=10	=10	=10	=10	=10	=10	=10	=10
*	*	*	*	*	*	*	*	*	*	*	*	*	*^	*	*^	*	*	*	*	*
!LO:TX:t=P:problem:mixed beam	!	!LO:TX:t=P:problem:mixed beam	!	!	!	!	!	!	!	!	!	!	!	!	!	!	!	!	!	!	!	!
8F\L)	.	8Fyy\L)	.	(8.b-\L	-pla-	.	(4d\	.	4.f/	.	(8.b-\L	.	2.rAA	4rA	.	4r	2ryy	.	4r	.	4r	.
8FF/	.	8FFyy/	.	.	.	.	.	.	.	.	.	.	.	.	.	.	.	.	.	.	.	.
.	.	.	.	32cc\LL	.	.	.	.	.	.	32cc\LL	.	.	.	.	.	.	.	.	.	.	.
.	.	.	.	32b-\JJJ	.	.	.	.	.	.	32b-\JJJ)	.	.	.	.	.	.	.	.	.	.	.
8F\J	.	8Fyy\J	.	8a/)	-ri	.	8c\)	.	.	.	8a/	.	.	4rA	.	4r	.	.	4r	.	4r	.
8r	.	8ryy	.	8r	.	.	8r	.	8r	.	8r	.	.	.	.	.	.	.	.	.	.	.
4r	.	(8f\L	.	4r	.	.	(8f\L	.	(8a/L	.	(4cc\	.	.	(>8f\L	.	(4cc/	8a\L	.	(8aa\L	.	(4ccc\	.
.	.	8en\J	.	.	.	.	8en\J	.	8g/J	.	.	.	.	8en\J	.	.	8g\J	.	8gg\J	.	.	.
=11	=11	=11	=11	=11	=11	=11	=11	=11	=11	=11	=11	=11	=11	=11	=11	=11	=11	=11	=11	=11	=11	=11
2.r	.	4d\	.	4r	.	.	4d\	.	2f/)	.	8.cc\L	.	2.rAA	4d\	.	8.cc/L	2f\	.	2ff\)	.	8.ccc\L	.
.	.	.	.	.	.	.	.	.	.	.	16b-\Jk	.	.	.	.	16b-/Jk	.	.	.	.	16bb-\Jk	.
.	.	4c\	.	4r	.	.	2c\)	.	.	.	4a/)	.	.	4c\)	.	4a/)	.	.	.	.	4aa\)	.
.	.	4B-\)	.	4g/	do-	.	.	.	4en/	.	4g/	.	.	4B-\	.	4g/	4en\	.	4een\	.	4gg\	.
=12	=12	=12	=12	=12	=12	=12	=12	=12	=12	=12	=12	=12	=12	=12	=12	=12	=12	=12	=12	=12	=12	=12
8AA/	p	(2A\	.	4cc\	-len-	.	8r	.	8r	.	8r	.	2.rAA	4A\	.	4cc/	4f\	.	4ff\	.	4ccc\	.
8r	.	.	.	.	.	.	8c\	.	8f/	.	8cc\	.	.	.	.	.	.	.	.	.	.	.
8AA/	.	.	.	4cc\	-tem	.	8r	.	8r	.	8r	.	.	4rA	.	4r	2ryy	.	4r	.	4r	.
8r	.	.	.	.	.	.	8c\	.	8f/	.	8cc\	.	.	.	.	.	.	.	.	.	.	.
8GG/	.	4G\)	sf	4b-\	do-	.	8r	.	8r	.	8r	.	.	4rA	.	4r	.	.	4r	.	4r	.
8r	.	.	.	.	.	.	8d\	.	8g/	sf	8b-\	sf	.	.	.	.	.	.	.	.	.	.
*	*	*	*	*	*	*	*	*	*	*	*	*	*v	*v	*	*	*	*	*	*	*	*
=13	=13	=13	=13	=13	=13	=13	=13	=13	=13	=13	=13	=13	=13	=13	=13	=13	=13	=13	=13	=13	=13
8C/	.	(2c\	.	4a/	-len-	.	8r	.	8r	.	8r	.	2.r	.	2.r	2.r	.	2.r	.	2.r	.
8r	.	.	.	.	.	.	8c\	.	8f/	.	8a/	.	.	.	.	.	.	.	.	.	.
8C/	.	.	.	4a/	-tem	.	8r	.	8r	.	8r	.	.	.	.	.	.	.	.	.	.
8r	.	.	.	.	.	.	8c\	.	8f/	.	8a/	.	.	.	.	.	.	.	.	.	.
8BB-/	.	4B-\)	sf	4g/	cum	.	8r	.	8r	.	8r	.	.	.	.	.	.	.	.	.	.
8r	.	.	.	.	.	.	8c\	.	8e-/	sf	8g/	sf	.	.	.	.	.	.	.	.	.
=14	=14	=14	=14	=14	=14	=14	=14	=14	=14	=14	=14	=14	=14	=14	=14	=14	=14	=14	=14	=14	=14
!!LO:LB:g=original
8AA/	.	8AAyy/	.	8.cc\	Fi-	.	8r	.	8r	.	8r	.	4r	.	4r	2ryy	.	4r	.	4r	.
8r	.	8ryy	.	.	.	.	8c\	.	8f/	.	8cc\	.	.	.	.	.	.	.	.	.	.
.	.	.	.	16cc\	-li-	.	.	.	.	.	.	.	.	.	.	.	.	.	.	.	.
8AA/	.	8AAyy/	.	8cc\	-o	.	8r	.	8r	.	8r	.	4r	.	4r	.	.	4r	.	4r	.
8r	.	8ryy	.	8r	.	.	8c\	.	8f/	.	8cc\	.	.	.	.	.	.	.	.	.	.
4AA/	sf	4AAyy/	sfyy	4cc#X\	do-	.	8r	.	8r	.	8r	.	4AA\ 4A	.	4f/	4f\	sf	4cc#X\	sf	4ccc#X\	sf
.	.	.	.	.	.	.	8c#X\	sf	8f/	sf	8cc#X\	sf	.	.	.	.	.	.	.	.	.
=15	=15	=15	=15	=15	=15	=15	=15	=15	=15	=15	=15	=15	=15	=15	=15	=15	=15	=15	=15	=15	=15
!	!LO:HP:a	!	!LO:HP:a	!	!	!	!	!	!	!	!	!	!	!	!	!	!	!	!	!	!
8BB-/	<	8BB-yy/	<	4dd\	-len-	.	8r	.	8r	<	8r	<	2BB-\ 2B-	.	2f/	2f\	.	(2dd\	.	(2ddd\	<
8r	.	8ryy	.	.	.	.	8d\	.	8f/	.	8dd\	.	.	.	.	.	.	.	.	.	.
8BB-/	.	8BB-yy/	.	8dd\	-tem	.	8r	.	8r	.	8r	.	.	.	.	.	.	.	.	.	.
8r	.	8ryy	.	8r	.	.	8d\	.	8f/	.	8dd\	.	.	.	.	.	.	.	.	.	.
4BBn/	sf [[	4BBnyy/	sfyy [[	4ff\	cum	.	8r	.	8r	.	8r	.	4BBn\ 4Bn	.	4dd/	4a-X\	.	4ff\)	.	4fff\)	[[
.	.	.	.	.	.	.	8d\	sf	8a-X/	sf [[	8ff\	sf [[	.	.	.	.	.	.	.	.	.
*	*	*	*	*	*	*	*	*	*	*	*	*	*	*	*v	*v	*	*	*	*	*
=16	=16	=16	=16	=16	=16	=16	=16	=16	=16	=16	=16	=16	=16	=16	=16	=16	=16	=16	=16	=16
!	!	!	!	!	!	!LO:DY:a	!	!	!	!	!	!	!	!	!	!	!	!	!	!
8C/	p	8Cyy/	pyy	2a/	Fi-	p	8r	.	8r	.	8r	.	2.r	.	2.r	.	2.r	.	2.r	.
8r	.	8ryy	.	.	.	.	8c\	p	8f/	.	8a/	p	.	.	.	.	.	.	.	.
8C/	.	8Cyy/	.	.	.	.	8r	.	8r	.	8r	.	.	.	.	.	.	.	.	.
8r	.	8ryy	.	.	.	.	8c\	.	8A/	.	8g/	.	.	.	.	.	.	.	.	.
.	.	.	.	(>8qa/	.	.	.	.	.	.	.	.	.	.	.	.	.	.	.	.
8C/	.	8Cyy/	.	8.g/L	-li-	.	8r	.	8r	.	8r	.	.	.	.	.	.	.	.	.
8r	.	8ryy	.	.	.	.	8c\	.	8B-/	.	8en/	.	.	.	.	.	.	.	.	.
.	.	.	.	16f/Jk)	.	.	.	.	.	.	.	.	.	.	.	.	.	.	.	.
=17	=17	=17	=17	=17	=17	=17	=17	=17	=17	=17	=17	=17	=17	=17	=17	=17	=17	=17	=17	=17
*	*	*	*	*	*	*	*	*	*	*	*	*	*	*	*	*	*^	*	*	*
8F\	.	8Fyy\	.	4f/	-o	.	8c\	.	4A/	.	8f/	.	8r	.	2.r	.	8r	2.r	.	8r	.
(8F\L	<	(yy8Fyy\L	<	.	.	.	(8f\L	.	.	.	(8f/L	<	(8F\L 8f	<	.	.	(<8f/L	.	.	(8ff\L	<
8En\	.	8Enyy\	.	4r	.	.	8en\	.	4r	.	8g/	.	8En\ 8en	.	.	.	8g/	.	.	8gg\	.
8E-X\	.	8E-Xyy\	.	.	.	.	8e-X\	.	.	.	8a/	.	8E-X\ 8e-X	.	.	.	8a/	.	.	8aa\	.
8D\	.	8Dyy\	.	4r	.	.	8d\	.	4r	.	8b-/	.	8D\ 8d	.	.	.	8b-/	.	.	8bb-\	.
8C\J)	[[	8Cyy\J)yy	[[	.	.	.	8c\J)	.	.	.	8cc/J)	[[	8C\J) 8c	[[	.	.	8cc/J)	.	.	8ccc\J)	[[
*	*	*	*	*	*	*	*	*	*	*	*	*	*	*	*	*	*v	*v	*	*	*
=18	=18	=18	=18	=18	=18	=18	=18	=18	=18	=18	=18	=18	=18	=18	=18	=18	=18	=18	=18	=18
!!LO:PB:g=original
*	*	*	*	*	*	*	*	*	*	*	*	*	*	*	*^	*	*	*	*	*
8BB-/	f	8BB-yy/	fyy	2dd\	Quis	.	8B-\L	f	8r	.	8dd\L	f	2BB-\ 2B-	.	(2b-/	2f\	.	(2dd\	.	(2ddd\	f
8r	.	8ryy	.	.	.	.	8f\J	.	8b-\	.	8dd\J	.	.	.	.	.	.	.	.	.	.
8BB-/	.	8BB-yy/	.	.	.	.	8r	.	8r	.	8r	.	.	.	.	.	.	.	.	.	.
8r	.	8ryy	.	.	.	.	8f\	.	8b-\	.	8dd\	.	.	.	.	.	.	.	.	.	.
4BBn^>/	.	4BBnyy^>/	.	4gg\	non	.	8r	.	8r	.	8r	.	4BBn\ 4Bn	.	4g/)	4d\	.	4gg\)	.	4ggg\)	.
.	.	.	.	.	.	.	8g\	.	8dd^<\	.	8gg^<\	.	.	.	.	.	.	.	.	.	.
*	*	*	*	*	*	*	*	*	*	*	*	*	*	*	*v	*v	*	*	*	*	*
=19	=19	=19	=19	=19	=19	=19	=19	=19	=19	=19	=19	=19	=19	=19	=19	=19	=19	=19	=19	=19
8C/	.	8Cyy/	.	4ff\	pos-	.	8r	.	8r	.	8r	.	(2C\ (>2c	.	(>2c/ 2g	.	(4ff\	.	(4fff\	.
8r	.	8ryy	.	.	.	.	8g\	.	8cc\	.	8ff\	.	.	.	.	.	.	.	.	.
8C/	.	8Cyy/	.	8ff\	-set	.	8r	.	8r	.	8r	.	.	.	.	.	8ee-\)	.	8eee-\)	.
8r	.	8ryy	.	8r	.	.	8g\	.	8cc\	.	8ee-\	.	.	.	.	.	8r	.	8r	.
4AA^>/	.	4AAyy^>/	.	8cc\	con-	.	8r	.	8r	.	8r	.	4AA\) 4A)	.	4c/) 4f	.	(8cc\L	.	(8ccc\L	.
.	.	.	.	8ff\	-tri-	.	8f\	.	8cc^<\	.	8ff^<\	.	.	.	.	.	8ff\J)	.	8fff\J)	.
=20	=20	=20	=20	=20	=20	=20	=20	=20	=20	=20	=20	=20	=20	=20	=20	=20	=20	=20	=20	=20
8BB-/	.	8BB-yy/	.	4ee-\	-sta-	.	8r	.	8r	.	8r	.	4.BB-\ 4.B-	.	4.B-/ 4.f	.	4ee-\	.	(4eee-\	.
8r	.	8ryy	.	.	.	.	8f\	.	8b-\	.	8ee-\	.	.	.	.	.	.	.	.	.
8BB-/	.	8BB-yy/	.	8dd\	-ri	.	8r	.	8r	.	8r	.	.	.	.	.	8dd\	.	8ddd\)	.
8r	.	8ryy	.	8r	.	.	8f\	.	8b-\	.	8dd\	.	8r	.	8r	.	8r	.	8r	.
!	!LO:DY:a	!	!LO:DY:a	!	!	!	!	!	!	!	!	!	!	!	!	!	!	!	!	!
(8G\L	p	(yy8Gyy\L	pyy	(4dd\	pi-	.	(8g\L	p	8r	.	8r	.	4r	.	4r	.	4r	.	4r	.
8F\J	.	8Fyy\J	.	.	.	.	8f\J	.	8b-\	.	(8dd\	p	.	.	.	.	.	.	.	.
=21	=21	=21	=21	=21	=21	=21	=21	=21	=21	=21	=21	=21	=21	=21	=21	=21	=21	=21	=21	=21
4.E-\)	.	4.E-yy\)yy	.	8dd\	.	.	4.e-\)	.	[2.g/	.	8dd\	.	2.r	.	2.r	.	2.r	.	2.r	.
.	.	.	.	4cc\	.	.	.	.	.	.	4cc\)	.	.	.	.	.	.	.	.	.
(8D\	.	(yy8Dyy\	.	8bn\)	.	.	(8d\	.	.	.	(8bn\	.	.	.	.	.	.	.	.	.
8E-/L	.	8E-yy/L	.	(8cc\L	-am	.	8e-\L	.	.	.	8cc\L	.	.	.	.	.	.	.	.	.
8BBn/J)	.	8BBnyy/J)yy	.	8dd\J)	.	.	8Bn\J)	.	.	.	8dd\J	.	.	.	.	.	.	.	.	.
=22	=22	=22	=22	=22	=22	=22	=22	=22	=22	=22	=22	=22	=22	=22	=22	=22	=22	=22	=22	=22
(>8C/L	.	(yy>8Cyy/L	.	4.ff\	Ma-	.	(8c/L	.	2g/]	.	(4.ff\)	.	2.r	.	2.r	.	2.r	.	2.r	.
8BBn/	.	8BBnyy/	.	.	.	.	8Bn/	.	.	.	.	.	.	.	.	.	.	.	.	.
8C/	.	8Cyy/	.	.	.	.	8c/	.	.	.	.	.	.	.	.	.	.	.	.	.
(>8C/)	.	(yy>8Cyy/)yy	.	8ee-\	-trem	.	(8c/)	.	.	.	8ee-\L	.	.	.	.	.	.	.	.	.
8D/	.	8Dyy/	.	8dd\	con-	.	8B/	.	4g/	.	8dd\	.	.	.	.	.	.	.	.	.
8E-/J)	.	8E-yy/J)yy	.	8cc\	-tem-	.	8c/J)	.	.	.	8cc\J)	.	.	.	.	.	.	.	.	.
=23	=23	=23	=23	=23	=23	=23	=23	=23	=23	=23	=23	=23	=23	=23	=23	=23	=23	=23	=23	=23
!!LO:LB:g=original
!LO:TX:t=P:problem:mixed beam	!	!LO:TX:t=P:problem:mixed beam	!	!	!	!	!	!	!	!	!	!	!	!	!	!	!	!	!	!
8F\L	.	8Fyy\L	.	8.b-\L	-pla-	.	(4d\	.	4.f/	.	(8.b-\L	.	2.r	.	2.r	.	2.r	.	2.r	.
8F\	.	8Fyy\	.	.	.	.	.	.	.	.	.	.	.	.	.	.	.	.	.	.
.	.	.	.	32cc\LL	.	.	.	.	.	.	32cc\LL	.	.	.	.	.	.	.	.	.
.	.	.	.	32b-\JJJ	.	.	.	.	.	.	32b-\JJJ	.	.	.	.	.	.	.	.	.
8FF/	.	8FFyy/	.	8a\	-ri.	.	8c\)	.	.	.	8a\)	.	.	.	.	.	.	.	.	.
8F\	.	8Fyy\	.	8r	.	.	8r	.	8r	.	8r	.	.	.	.	.	.	.	.	.
8FF/	.	8FFyy/	.	4r	.	.	4r	.	4r	.	4r	.	.	.	.	.	.	.	.	.
8F\J	.	8Fyy\J	.	.	.	.	.	.	.	.	.	.	.	.	.	.	.	.	.	.
=24	=24	=24	=24	=24	=24	=24	=24	=24	=24	=24	=24	=24	=24	=24	=24	=24	=24	=24	=24	=24
*	*	*	*	*	*	*	*	*	*	*	*	*	*^	*	*^	*	*	*	*	*
*tremolo	*	*tremolo	*	*	*	*	*	*	*	*	*	*	*	*	*	*	*	*	*	*	*	*
!LO:TX:t=P:problem:mixed beam	!	!LO:TX:t=P:problem:mixed beam	!	!	!	!	!	!	!	!	!	!	!	!	!LO:DY:a	!	!	!	!	!	!	!
8FF/L	p	8FFyy/L	pyy	2ee-\	Quis	.	2.f\	.	(2a/	p	(2ee-\	p	2.rAAA	2.F/	p	(2cc/	2a\	.	(2ee-\	p	(2eee-\	p
8F\	.	8Fyy\	.	.	.	.	.	.	.	.	.	.	.	.	.	.	.	.	.	.	.	.
8FF/	.	8FFyy/	.	.	.	.	.	.	.	.	.	.	.	.	.	.	.	.	.	.	.	.
8F\	.	8Fyy\	.	.	.	.	.	.	.	.	.	.	.	.	.	.	.	.	.	.	.	.
8FF/	.	8FFyy/	.	4dd-X\	non	.	.	.	4b-/)	.	4dd-X\)	.	.	.	.	4b-/)	4b-\	.	4dd-X\)	.	4ddd-X\)	.
8F\J	.	8Fyy\J	.	.	.	.	.	.	.	.	.	.	.	.	.	.	.	.	.	.	.	.
=25	=25	=25	=25	=25	=25	=25	=25	=25	=25	=25	=25	=25	=25	=25	=25	=25	=25	=25	=25	=25	=25	=25
!LO:TX:t=P:problem:mixed beam	!	!LO:TX:t=P:problem:mixed beam	!	!	!	!	!	!	!	!	!	!	!	!	!	!	!	!	!	!	!	!
8FF\L	.	8FFyy\L	.	4dd-X\	pos-	.	4.f\	.	(4b-/	.	(4dd-X\	.	4.F/	4r	.	(4b-/	4b-\	.	(4dd-X\	.	(4ddd-X\	.
8F\	.	8Fyy\	.	.	.	.	.	.	.	.	.	.	.	.	.	.	.	.	.	.	.	.
8FF\	.	8FFyy\	.	8cc\	-set	.	.	.	8a/)	.	8cc\)	.	.	4r	.	8a/)	8a\	.	8cc\)	.	8ccc\)	.
8F\	.	8Fyy\	.	8r	.	.	8r	.	8r	.	8r	.	8r	.	.	8r	8ryy	.	8r	.	8r	.
8FF\	.	8FFyy\	.	(8ff\L	con-	.	(4f\	.	4a/	.	(8ff\L	.	4F/	4F\	p	4a/	4f\	.	(8ff\L	.	(8fff\L	.
8F\J	.	8Fyy\J	.	8ee-\J	.	.	.	.	.	.	8ee-\J)	.	.	.	.	.	.	.	8ee-\J)	.	8eee-\J)	.
*Xtremolo	*	*Xtremolo	*	*	*	*	*	*	*	*	*	*	*	*	*	*	*	*	*	*	*	*
*	*	*	*	*	*	*	*	*	*	*	*	*	*v	*v	*	*	*	*	*	*	*	*
=26	=26	=26	=26	=26	=26	=26	=26	=26	=26	=26	=26	=26	=26	=26	=26	=26	=26	=26	=26	=26	=26
(8BB-/L	.	(yy8BB-yy/L	.	2dd-X\)	.	.	[2.f\)	.	(2b-/	.	(2dd-X\	.	(8BB-/L	.	(2b-/	2f\	.	(2dd-X\	.	(2ddd-X\	.
8AA/	.	8AAyy/	.	.	.	.	.	.	.	.	.	.	8AA/	.	.	.	.	.	.	.	.
8BB-/	.	8BB-yy/	.	.	.	.	.	.	.	.	.	.	8BB-/	.	.	.	.	.	.	.	.
8C/	.	8Cyy/	.	.	.	.	.	.	.	.	.	.	8C/	.	.	.	.	.	.	.	.
8D-X/	.	8D-Xyy/	.	4b-\	-tri-	.	.	.	4f/)	.	4b-\)	.	8D-X/	.	4f/)	4f\	.	4b-\)	.	4bb-\)	.
8E-/J)	.	8E-yy/J)yy	.	.	.	.	.	.	.	.	.	.	8E-/J)	.	.	.	.	.	.	.	.
*	*	*	*	*	*	*	*	*	*	*	*	*	*	*	*v	*v	*	*	*	*	*
=27	=27	=27	=27	=27	=27	=27	=27	=27	=27	=27	=27	=27	=27	=27	=27	=27	=27	=27	=27	=27
*	*	*	*	*	*	*	*	*	*	*	*	*	*^	*	*	*	*	*	*	*
4F\	.	4Fyy\	.	8.a\L	-sta-	.	4.f\]	.	(4f/	.	(4a\	.	4.F/	4.F\	.	(4f/	.	(4a\	.	(4aa\	.
.	.	.	.	16cc\Jk	.	.	.	.	.	.	.	.	.	.	.	.	.	.	.	.	.
8FF/	.	8FFyy/	.	8cc\	-ri	.	.	.	8a/)	.	8cc\)	.	.	.	.	8a/)	.	8cc\)	.	8ccc\)	.
8r	.	8ryy	.	8r	.	.	8r	.	8r	.	8r	.	8r	4.ryy	.	8r	.	8r	.	8r	.
4r	.	4ryy	.	8.ff\	pi-	.	4r	.	4r	.	4r	.	4r	.	.	4r	.	4r	.	4r	.
.	.	.	.	16ff\	-am	.	.	.	.	.	.	.	.	.	.	.	.	.	.	.	.
*	*	*	*	*	*	*	*	*	*	*	*	*	*v	*v	*	*	*	*	*	*	*
=28	=28	=28	=28	=28	=28	=28	=28	=28	=28	=28	=28	=28	=28	=28	=28	=28	=28	=28	=28	=28
!!LO:PB:g=original
*tremolo	*	*	*	*	*	*	*tremolo	*	*tremolo	*	*tremolo	*	*tremolo	*	*tremolo	*	*tremolo	*	*tremolo	*
!LO:TX:t=P:problem:u góry główki 4 kropki	!	!LO:TX:t=P:problem:u góry główki 4 kropki	!	!	!	!	!	!	!	!	!	!	!	!	!	!	!	!	!LO:TX:t=P:problem:u góry główki 4 kropki	!
16G-X\LL	f	16G-Xyy\LL	fyy	4.bb-\	Mat-	.	16B-\LL 16g-X	.	16g-X\LL 16dd-X	.	16b-\LL 16bb-	f	16GG-X\LL 16G-X	.	16b-\LL 16dd-X	f)	16bb-\LL	.	16bb-\LL	f
16G-\	.	16G-yy\	.	.	.	.	16B-\ 16g-	.	16g-\ 16dd-	.	16b-\ 16bb-	.	16GG-\ 16G-	.	16b-\ 16dd-	.	16bb-\	.	16bb-\	.
16G-\	.	16G-yy\	.	.	.	.	16B-\ 16g-	.	16g-\ 16dd-	.	16b-\ 16bb-	.	16GG-\ 16G-	.	16b-\ 16dd-	.	16bb-\	.	16bb-\	.
16G-\JJ	.	16G-yy\JJ	.	.	.	.	16B-\JJ 16g-	.	16g-\JJ 16dd-	.	16b-\JJ 16bb-	.	16GG-\JJ 16G-	.	16b-\JJ 16dd-	.	16bb-\JJ	.	16bb-\JJ	.
*Xtremolo	*	*	*	*	*	*	*Xtremolo	*	*Xtremolo	*	*Xtremolo	*	*Xtremolo	*	*Xtremolo	*	*Xtremolo	*	*Xtremolo	*
8G-\	.	8G-yy\	.	.	.	.	8B-\ 8g-	.	8g-\ 8dd-	.	8b-\ 8bb-	.	8GG-\ 8G-	.	8b-\ 8dd-	.	8bb-\	.	8bb-\	.
8r	.	8ryy	.	8b-\	-rem	.	8r	.	8r	.	8r	.	8r	.	8r	.	8r	.	8r	.
4r	.	4ryy	.	8dd-X\	con-	.	4r	.	4r	.	4r	.	4r	.	4r	.	4r	.	4r	.
.	.	.	.	8ee-\	-tem-	.	.	.	.	.	.	.	.	.	.	.	.	.	.	.
=29	=29	=29	=29	=29	=29	=29	=29	=29	=29	=29	=29	=29	=29	=29	=29	=29	=29	=29	=29	=29
8r	.	8ryy	.	(8.ff\L	-pla-	.	8r	.	8r	.	8r	.	8r	.	8r	.	8r	.	8r	.
!LO:TX:t=P:problem:mixed beam	!	!LO:TX:t=P:problem:mixed beam	!	!	!	!	!	!	!	!	!LO:TX:t=P:problem:mixed beam	!	!LO:TX:t=P:problem:mixed beam	!	!	!	!	!	!	!
8FF/L	.	8FFyy/L	.	.	.	.	8c/L	.	8f/L	.	8a\L 8ff	.	8FF/L	.	8a\L 8ff	.	8aa\L	.	8fff\L	f
.	.	.	.	32een\LL	.	.	.	.	.	.	.	.	.	.	.	.	.	.	.	.
.	.	.	.	32ff\JJJ)	.	.	.	.	.	.	.	.	.	.	.	.	.	.	.	.
8F\J	.	8Fyy\J	.	8f/	ri	.	8A/J	.	8c/J	.	8f/J	.	8F\J	.	8a\J 8cc	.	8ff\J	.	8ff\J	.
8r	.	8ryy	.	8r	.	.	8r	.	8r	.	8r	.	8r	.	8r	.	8r	.	8r	.
!	!LO:DY:a	!	!LO:DY:a	!	!	!	!	!	!	!	!	!	!	!	!	!	!	!	!	!
4E-X\	sf	4E-Xyy\	sfyy	4cc\	do-	.	4e-X\	.	8r	.	8r	.	4r	.	4r	.	4r	.	4r	.
.	.	.	.	.	.	.	.	.	8f/ 8a	.	8cc\	sf	.	.	.	.	.	.	.	.
=30	=30	=30	=30	=30	=30	=30	=30	=30	=30	=30	=30	=30	=30	=30	=30	=30	=30	=30	=30	=30
!	!LO:DY:a	!	!LO:DY:a	!	!	!	!	!	!	!	!	!	!	!	!	!	!	!	!	!
8D\	p	8Dyy\	pyy	4ff\	-len-	.	8d\L	.	8r	.	8r	p	4r	.	4r	.	4r	.	4r	.
8r	.	8ryy	.	.	.	.	8d\J	.	8f/ 8b-	.	8ff\	.	.	.	.	.	.	.	.	.
8D\	.	8Dyy\	.	8ff\	-tem	.	8r	.	8r	.	8r	.	4r	.	4r	.	4r	.	4r	.
8r	.	8ryy	.	8r	.	.	8d\	.	8f/ 8b-	.	8ff\	.	.	.	.	.	.	.	.	.
!	!LO:DY:a	!	!LO:DY:a	!	!	!	!	!	!	!	!	!	!	!	!	!	!	!	!	!
4E-\	sf	4E-yy\	sfyy	(16cc\LL	do-	.	(4e-\	.	8r	.	8r	.	4E-\ 4c	sf <	4f/ 4a	sf	(16cc\LL	.	(16ccc\LL	<
.	.	.	.	16dd\	.	.	.	.	.	.	.	.	.	.	.	.	16dd\	.	16ddd\	.
.	.	.	.	16ee-\	.	.	.	.	8f/ 8a	.	8cc\	sf	.	[[	.	.	16ee-\	.	16eee-\	.
.	.	.	.	16een\JJ)	.	.	.	.	.	.	.	.	.	>	.	.	16een\JJ)	.	16eeen\JJ)	[[
=31	=31	=31	=31	=31	=31	=31	=31	=31	=31	=31	=31	=31	=31	=31	=31	=31	=31	=31	=31	=31
*	*	*	*	*	*	*	*	*	*	*	*	*	*	*	*^	*	*	*	*	*
!	!LO:DY:a	!	!LO:DY:a	!	!	!	!	!	!	!	!	!	!	!	!	!	!	!	!	!	!
8D\	p	8Dyy\	pyy	4gg\	-len-	.	8d\L)	.	8r	.	8r	.	4.D\ 4.B-	]] p	4.b-/	4.f\	p	4gg\	.	(4ggg\	>
8r	.	8ryy	.	.	.	.	8d\J	.	8f/ 8b-	.	8gg\	p	.	.	.	.	.	.	.	.	.
8D\	.	8Dyy\	.	8ff\	-tem	.	8r	.	8r	.	8r	.	.	.	.	.	.	8ff\	.	8fff\)	.
8r	.	8ryy	.	8r	.	.	8d\	.	8f/ 8b-	.	8ff\	.	8r	.	8r	4.ryy	.	8r	.	8r	]
(8C\L	.	(yy8Cyy\L	.	(8ee-\L	cum	.	(8c\L	.	4g/	.	(8ee-\L	.	4r	.	4r	.	.	4r	.	4r	.
8E-\J)	.	8E-yy\J)yy	.	8cc\J)	.	.	8e-\J)	.	.	.	8dd\J)	.	.	.	.	.	.	.	.	.	.
=32	=32	=32	=32	=32	=32	=32	=32	=32	=32	=32	=32	=32	=32	=32	=32	=32	=32	=32	=32	=32	=32
!!LO:LB:g=original
8D\	.	8Dyy\	.	(4b-\	Fi-	.	8r	.	8r	.	8r	.	2.r	.	2.r	2.r	.	2.r	.	2.r	.
8r	.	8ryy	.	.	.	.	8d\	.	8g/	.	8b-\	.	.	.	.	.	.	.	.	.	.
*	*	*	*	*	*	*	*rep	*	*	*	*	*	*	*	*	*	*	*	*	*	*
8D\	.	8Dyy\	.	4a\	.	.	8r	.	8r	.	8r	.	.	.	.	.	.	.	.	.	.
8r	.	8ryy	.	.	.	.	8d\	.	8g/	.	8a\	.	.	.	.	.	.	.	.	.	.
*	*	*	*	*	*	*	*Xrep	*	*	*	*	*	*	*	*	*	*	*	*	*	*
*	*	*	*	*	*	*	*rep	*	*	*	*	*	*	*	*	*	*	*	*	*	*
8D\	.	8Dyy\	.	4dd\)	-li-	.	8r	.	8r	.	8r	.	.	.	.	.	.	.	.	.	.
8r	.	8ryy	.	.	.	.	8d\	.	8f#X/	.	8dd\	.	.	.	.	.	.	.	.	.	.
*	*	*	*	*	*	*	*Xrep	*	*	*	*	*	*	*	*	*	*	*	*	*	*
*	*	*	*	*	*	*	*	*	*	*	*	*	*	*	*v	*v	*	*	*	*	*
=33	=33	=33	=33	=33	=33	=33	=33	=33	=33	=33	=33	=33	=33	=33	=33	=33	=33	=33	=33	=33
8G\	.	8Gyy\	.	2b-\	-o	.	8r	.	8r	.	8r	.	2.r	.	2.r	.	2.r	.	2.r	.
8r	.	8ryy	.	.	.	.	8d\	.	8g/	.	8b-\	.	.	.	.	.	.	.	.	.
8G\	.	8Gyy\	.	.	.	.	8r	.	8r	.	8r	.	.	.	.	.	.	.	.	.
8r	.	8ryy	.	.	.	.	8d\	.	8g/	.	8b-\	.	.	.	.	.	.	.	.	.
(8F\L	sf	(yy8Fyy\L	sfyy	4cc\	do-	.	(8f\L	sf	8r	.	8r	.	.	.	.	.	.	.	.	.
8E-X\J)	.	8E-Xyy\J)yy	.	.	.	.	8e-X\J)	.	8a/	.	8cc\	sf	.	.	.	.	.	.	.	.
=34	=34	=34	=34	=34	=34	=34	=34	=34	=34	=34	=34	=34	=34	=34	=34	=34	=34	=34	=34	=34
*	*	*	*	*	*	*	*	*	*	*	*	*	*	*	*^	*	*	*	*	*
8D\	.	8Dyy\	.	4ff\	-len-	.	8d\L	.	8r	.	8r	.	4r	.	4r	2ryy	.	4r	.	4r	.
8r	.	8ryy	.	.	.	.	8d\J	.	8b-\	.	8ff\	.	.	.	.	.	.	.	.	.	.
8D\	.	8Dyy\	.	8ff\	-tem	.	8r	.	8r	.	8r	.	4r	.	4r	.	.	4r	.	4r	.
8r	.	8ryy	.	8r	.	.	8d\	.	8b-\	.	8ff\	.	.	.	.	.	.	.	.	.	.
!	!	!	!	!	!	!LO:HP:b	!	!	!	!	!	!	!	!	!	!	!	!	!	!	!
4E-\	sf	4E-yy\	sfyy	(16cc\LL	do-	<	4e-\	.	8r	.	8r	.	4E-\ 4c	.	4a/	4f\	sf	(16cc\LL	.	(16ccc\LL	<
.	.	.	.	16dd\	.	.	.	.	.	.	.	.	.	.	.	.	.	16dd\	.	16ddd\	.
.	.	.	.	16ee-\	.	.	.	.	8a\	.	8cc\	sf	.	.	.	.	.	16ee-\	.	16eee-\	.
.	.	.	.	16een\JJ)	.	[[	.	.	.	.	.	.	.	.	.	.	.	16een\JJ)	.	16eeen\JJ)	[[
=35	=35	=35	=35	=35	=35	=35	=35	=35	=35	=35	=35	=35	=35	=35	=35	=35	=35	=35	=35	=35	=35
!	!	!	!	!	!	!LO:HP:b	!	!	!	!	!	!	!	!	!	!	!	!	!	!	!
8D\	.	8Dyy\	.	4gg\	-len-	>	8d\L	.	8r	.	8r	.	4.D\ 4.B-	.	4.b-/	4.f\	p	(4gg\	.	(4ggg\	>
8r	.	8ryy	.	.	.	.	8d\J	.	8b-\	.	8gg\	.	.	.	.	.	.	.	.	.	.
8D\	.	8Dyy\	.	8ff\	-tem	.	8r	.	8r	.	8r	.	.	.	.	.	.	8ff\)	.	8fff\)	]
8r	.	8ryy	.	8r	.	]	8d\	.	8b-\	.	8ff\	.	8r	.	8r	4.ryy	.	8r	.	8r	.
(8C/L	.	(yy8Cyy/L	.	(8ee-\L	cum	.	(8c\L	.	4g/	.	(8ee-\L	.	4r	.	4r	.	.	4r	.	4r	.
8E-/J)	.	8E-yy/J)yy	.	8cc\J)	.	.	8e-\J)	.	.	.	8cc\J)	.	.	.	.	.	.	.	.	.	.
*	*	*	*	*	*	*	*	*	*	*	*	*	*	*	*v	*v	*	*	*	*	*
=36	=36	=36	=36	=36	=36	=36	=36	=36	=36	=36	=36	=36	=36	=36	=36	=36	=36	=36	=36	=36
8F\	.	8Fyy\	.	(4dd\	Fi-	.	8r	.	8r	.	8r	.	2.r	.	2.r	.	2.r	.	2.r	.
8r	.	8ryy	.	.	.	.	8f\	.	8b-\	.	8dd\	.	.	.	.	.	.	.	.	.
8F\	.	8Fyy\	.	4cc\	.	.	8r	.	8r	.	8r	.	.	.	.	.	.	.	.	.
8r	.	8ryy	.	.	.	.	8f\	.	8b-\	.	8cc\	.	.	.	.	.	.	.	.	.
8FF/	.	8FFyy/	.	4ff\)	-li-	.	8r	.	8r	.	8r	.	.	.	.	.	.	.	.	.
8r	.	8ryy	.	.	.	.	8c\ 8f	.	8a\	.	8ff\	.	.	.	.	.	.	.	.	.
=37	=37	=37	=37	=37	=37	=37	=37	=37	=37	=37	=37	=37	=37	=37	=37	=37	=37	=37	=37	=37
!!LO:PB:g=original
8BB-/	.	8BB-yy/	.	4b-\	-o.	.	8B-\ 8f	.	4b-\	.	4d/ 4b-	.	2.r	.	2.r	.	2.r	.	2.r	.
(16BB-/LL	.	(yy16BB-yy/LL	.	.	.	.	(16B-/LL	.	.	.	.	.	.	.	.	.	.	.	.	.
16AA/JJ	.	16AAyy/JJ	.	.	.	.	16A/JJ	.	.	.	.	.	.	.	.	.	.	.	.	.
16BB-/LL	.	16BB-yy/LL	.	4r	.	.	16B-/LL	.	4r	.	4r	.	.	.	.	.	.	.	.	.
16AA/	.	16AAyy/	.	.	.	.	16A/	.	.	.	.	.	.	.	.	.	.	.	.	.
16BB-/	.	16BB-yy/	.	.	.	.	16B-/	.	.	.	.	.	.	.	.	.	.	.	.	.
16AA/JJ	.	16AAyy/JJ	.	.	.	.	16A/JJ	.	.	.	.	.	.	.	.	.	.	.	.	.
16BB-/LL	.	16BB-yy/LL	.	4r	.	.	16B-/LL	.	4r	.	4r	.	.	.	.	.	.	.	.	.
16AA/	.	16AAyy/	.	.	.	.	16A/	.	.	.	.	.	.	.	.	.	.	.	.	.
16BB-/	.	16BB-yy/	.	.	.	.	16B-/	.	.	.	.	.	.	.	.	.	.	.	.	.
16AA/JJ)	.	16AAyy/JJ)yy	.	.	.	.	16A/JJ)	.	.	.	.	.	.	.	.	.	.	.	.	.
=38	=38	=38	=38	=38	=38	=38	=38	=38	=38	=38	=38	=38	=38	=38	=38	=38	=38	=38	=38	=38
!LO:TX:t=P:problem:brak wyświetlania łuku	!	!	!	!	!	!	!LO:TX:t=P:problem:brak wyświetlania łuku	!	!	!	!	!	!	!	!	!	!	!	!	!
(16BB-/LL	.	(yy16BB-yy/LL	.	2a-X/	Quis	.	(16B-/LL	.	(2f/	p	(2a-X/	p	2.r	.	(2f/	p	(2a-X/	.	(2aa-X\	p
16AA/	.	16AAyy/	.	.	.	.	16A/	.	.	.	.	.	.	.	.	.	.	.	.	.
16BB-/	.	16BB-yy/	.	.	.	.	16B-/	.	.	.	.	.	.	.	.	.	.	.	.	.
16AA/JJ	.	16AAyy/JJ	.	.	.	.	16A/JJ	.	.	.	.	.	.	.	.	.	.	.	.	.
*rep	*	*	*	*	*	*	*rep	*	*	*	*	*	*	*	*	*	*	*	*	*
16BB-/LL	.	16BB-yy/LL	.	.	.	.	16B-/LL	.	.	.	.	.	.	.	.	.	.	.	.	.
16AA/	.	16AAyy/	.	.	.	.	16A/	.	.	.	.	.	.	.	.	.	.	.	.	.
16BB-/	.	16BB-yy/	.	.	.	.	16B-/	.	.	.	.	.	.	.	.	.	.	.	.	.
16AA/JJ	.	16AAyy/JJ	.	.	.	.	16A/JJ	.	.	.	.	.	.	.	.	.	.	.	.	.
*Xrep	*	*	*	*	*	*	*Xrep	*	*	*	*	*	*	*	*	*	*	*	*	*
*rep	*	*	*	*	*	*	*rep	*	*	*	*	*	*	*	*	*	*	*	*	*
16BB-/LL	.	16BB-yy/LL	.	4ff\	non	.	16B-/LL	.	4a-X/)	.	4ff\)	.	.	.	4a-X/	.	4ff\)	.	4fff\)	.
16AA/	.	16AAyy/	.	.	.	.	16A/	.	.	.	.	.	.	.	.	.	.	.	.	.
16BB-/	.	16BB-yy/	.	.	.	.	16B-/	.	.	.	.	.	.	.	.	.	.	.	.	.
16AA/JJ)	.	16AAyy/JJ)yy	.	.	.	.	16A/JJ)	.	.	.	.	.	.	.	.	.	.	.	.	.
*Xrep	*	*	*	*	*	*	*Xrep	*	*	*	*	*	*	*	*	*	*	*	*	*
=39	=39	=39	=39	=39	=39	=39	=39	=39	=39	=39	=39	=39	=39	=39	=39	=39	=39	=39	=39	=39
*	*	*	*	*	*	*	*rep	*	*	*	*	*	*	*	*	*	*	*	*	*
!LO:TX:t=P:problem:brak wyświetlania łuku	!	!	!	!	!	!	!	!	!	!	!	!	!	!	!	!	!	!	!	!
(16BB-/LL	.	(yy16BB-yy/LL	.	4ff\	pos-	.	(16B-/LL	.	2g/	.	(4ff\	.	2.r	.	2g/)	.	(4ff\	.	(4fff\	.
16AA/	.	16AAyy/	.	.	.	.	16A/	.	.	.	.	.	.	.	.	.	.	.	.	.
16BB-/	.	16BB-yy/	.	.	.	.	16B-/	.	.	.	.	.	.	.	.	.	.	.	.	.
16AA/JJ	.	16AAyy/JJ	.	.	.	.	16A/JJ	.	.	.	.	.	.	.	.	.	.	.	.	.
*rep	*	*	*	*	*	*	*	*	*	*	*	*	*	*	*	*	*	*	*	*
16BB-/LL	.	16BB-yy/LL	.	4ee-\	-set	.	16B-/LL	.	.	.	4ee-\)	.	.	.	.	.	4ee-\)	.	4eee-\)	.
16AA/	.	16AAyy/	.	.	.	.	16A/	.	.	.	.	.	.	.	.	.	.	.	.	.
16BB-/	.	16BB-yy/	.	.	.	.	16B-/	.	.	.	.	.	.	.	.	.	.	.	.	.
16AA/JJ	.	16AAyy/JJ	.	.	.	.	16A/JJ	.	.	.	.	.	.	.	.	.	.	.	.	.
*Xrep	*	*	*	*	*	*	*	*	*	*	*	*	*	*	*	*	*	*	*	*
*rep	*	*	*	*	*	*	*	*	*	*	*	*	*	*	*	*	*	*	*	*
16BB-/LL	.	16BB-yy/LL	.	4r	.	.	16B-/LL	.	4r	.	4r	.	.	.	4r	.	4r	.	4r	.
16AA/	.	16AAyy/	.	.	.	.	16A/	.	.	.	.	.	.	.	.	.	.	.	.	.
16BB-/	.	16BB-yy/	.	.	.	.	16B-/	.	.	.	.	.	.	.	.	.	.	.	.	.
16AA/JJ)	.	16AAyy/JJ)	.	.	.	.	16A/JJ)	.	.	.	.	.	.	.	.	.	.	.	.	.
*Xrep	*	*	*	*	*	*	*Xrep	*	*	*	*	*	*	*	*	*	*	*	*	*
=40	=40	=40	=40	=40	=40	=40	=40	=40	=40	=40	=40	=40	=40	=40	=40	=40	=40	=40	=40	=40
*	*	*	*	*	*	*	*rep	*	*	*	*	*	*	*	*	*	*	*	*	*
!LO:TX:t=P:problem:brak wyświetlania łuku	!	!	!	!	!	!	!	!	!	!	!	!	!	!	!	!	!	!	!	!
(16BB-/LL	.	(yy16BB-yy/LL	.	2g-X/	con-	.	(16B-/LL	.	(2e-/	.	(2g-X/	.	2.r	.	(2e-/	.	(2g-X/	.	(2gg-X\	.
16AA/	.	16AAyy/	.	.	.	.	16A/	.	.	.	.	.	.	.	.	.	.	.	.	.
16BB-/	.	16BB-yy/	.	.	.	.	16B-/	.	.	.	.	.	.	.	.	.	.	.	.	.
16AA/JJ	.	16AAyy/JJ	.	.	.	.	16A/JJ	.	.	.	.	.	.	.	.	.	.	.	.	.
*rep	*	*	*	*	*	*	*	*	*	*	*	*	*	*	*	*	*	*	*	*
16BB-/LL	.	16BB-yy/LL	.	.	.	.	16B-/LL	.	.	.	.	.	.	.	.	.	.	.	.	.
16AA/	.	16AAyy/	.	.	.	.	16A/	.	.	.	.	.	.	.	.	.	.	.	.	.
16BB-/	.	16BB-yy/	.	.	.	.	16B-/	.	.	.	.	.	.	.	.	.	.	.	.	.
16AA/JJ	.	16AAyy/JJ	.	.	.	.	16A/JJ	.	.	.	.	.	.	.	.	.	.	.	.	.
*Xrep	*	*	*	*	*	*	*	*	*	*	*	*	*	*	*	*	*	*	*	*
*rep	*	*	*	*	*	*	*	*	*	*	*	*	*	*	*	*	*	*	*	*
16BB-/LL	.	16BB-yy/LL	.	4ee-\	-tri-	.	16B-/LL	.	4g-X/)	.	4ee-\)	.	.	.	4g-X/)	.	4ee-\)	.	4eee-\)	.
16AA/	.	16AAyy/	.	.	.	.	16A/	.	.	.	.	.	.	.	.	.	.	.	.	.
16BB-/	.	16BB-yy/	.	.	.	.	16B-/	.	.	.	.	.	.	.	.	.	.	.	.	.
16AA/JJ)	.	16AAyy/JJ)yy	.	.	.	.	16A/JJ)	.	.	.	.	.	.	.	.	.	.	.	.	.
*Xrep	*	*	*	*	*	*	*Xrep	*	*	*	*	*	*	*	*	*	*	*	*	*
=41	=41	=41	=41	=41	=41	=41	=41	=41	=41	=41	=41	=41	=41	=41	=41	=41	=41	=41	=41	=41
!!LO:LB:g=original
*	*	*	*	*	*	*	*	*	*	*	*	*	*^	*	*	*	*	*	*	*
(16BB-/LL	.	(yy16BB-yy/LL	.	4ee-\	-sta-	.	(16B-/LL	.	4.f/	.	(4ee-\	.	(4B-/	16B-\LL	.	4.f/	.	4ee-\	.	(4eee-\	.
16AA/	.	16AAyy/	.	.	.	.	16A/	.	.	.	.	.	.	16A\	.	.	.	.	.	.	.
16BB-/	.	16BB-yy/	.	.	.	.	16B-/	.	.	.	.	.	.	16B-\	.	.	.	.	.	.	.
16AA/JJ	.	16AAyy/JJ	.	.	.	.	16A/JJ)	.	.	.	.	.	.	16A\JJ	.	.	.	.	.	.	.
8BB-/)	.	8BB-yy/)yy	.	8dd\	-ri	.	8B-/	.	.	.	8dd\)	.	2ryy	8B-\)	.	.	.	8dd\	.	8ddd\)	.
8r	.	8ryy	.	8r	.	.	8r	.	8r	.	8r	.	.	8r	.	8r	.	8r	.	8r	.
(8G\L	.	(yy8Gyy\L	.	([4dd\	pi-	.	(8g\L	.	(8b-/L	.	[4dd\	.	.	4r	.	4r	.	4r	.	4r	.
8F\J)	.	8Fyy\J)yy	.	.	.	.	8f\J)	.	8a/J	.	.	.	.	.	.	.	.	.	.	.	.
*	*	*	*	*	*	*	*	*	*	*	*	*	*v	*v	*	*	*	*	*	*	*
=42	=42	=42	=42	=42	=42	=42	=42	=42	=42	=42	=42	=42	=42	=42	=42	=42	=42	=42	=42	=42
4.E-\	.	4.E-yy\	.	8dd\]	.	.	4.e-\	.	[2.g/)	.	8dd\]	.	2.r	.	2.r	.	2.r	.	2.r	.
.	.	.	.	4cc\	.	.	.	.	.	.	4cc\	.	.	.	.	.	.	.	.	.
(8D\	.	(yy8Dyy\	.	8bn\)	.	.	(8d|\	.	.	.	(8bn|\	.	.	.	.	.	.	.	.	.
8E-\L	.	8E-yy\L	.	(8cc\L	am	.	8e-\L	.	.	.	8cc\L	.	.	.	.	.	.	.	.	.
8BBn\J)	.	8BBnyy\J)yy	.	8dd\J)	.	.	8Bn\J)	.	.	.	8dd\J	.	.	.	.	.	.	.	.	.
=43	=43	=43	=43	=43	=43	=43	=43	=43	=43	=43	=43	=43	=43	=43	=43	=43	=43	=43	=43	=43
(8C/L	.	(yy8Cyy/L	.	4.ff\	Ma-	.	(8c/L	.	2g/]	.	4.ff\)	.	2.r	.	2.r	.	2.r	.	2.r	.
8BBn/	.	8BBnyy/	.	.	.	.	8Bn/	.	.	.	.	.	.	.	.	.	.	.	.	.
8C/)	.	8Cyy/)yy	.	.	.	.	8c/)	.	.	.	.	.	.	.	.	.	.	.	.	.
(8C|/	.	(yy8Cyy|/	.	8ee-\	-trem	.	(8c|/	.	.	.	(8ee-\L	.	.	.	.	.	.	.	.	.
8D/	.	8Dyy/	.	8dd\	con-	.	8B/	.	4g/	.	8dd\	.	.	.	.	.	.	.	.	.
8E-/J)	.	8E-yy/J)yy	.	8cc\	-tem-	.	8c/J)	.	.	.	8cc\J)	.	.	.	.	.	.	.	.	.
=44	=44	=44	=44	=44	=44	=44	=44	=44	=44	=44	=44	=44	=44	=44	=44	=44	=44	=44	=44	=44
!LO:TX:t=P:problem:mixed beam	!	!LO:TX:t=P:problem:mixed beam	!	!	!	!	!	!	!	!	!	!	!	!	!	!	!	!	!	!
8F\L	.	8Fyy\L	.	8.b-S\L	-pla-	.	8.d/L	.	4.f/	.	8.b-\L	.	4r	.	4r	.	4r	.	4r	.
8FF/J	.	8FFyy/J	.	.	.	.	.	.	.	.	.	.	.	.	.	.	.	.	.	.
.	.	.	.	16dd\Jk	.	.	16B-/Jk	.	.	.	16dd\Jk	.	.	.	.	.	.	.	.	.
8F\	.	8Fyy\	.	8cc\	-ri	.	8A/	.	.	.	8cc\	.	4r	.	4r	.	4r	.	4r	.
8r	.	8ryy	.	8r	.	.	8r	.	8r	.	8r	.	.	.	.	.	.	.	.	.
4E-X\	sf	4E-Xyy\	sfyy	4cc\	do-	.	(4e-\	sf	8r	.	8r	.	4E-\ 4c	sf	4f/ 4a	.	4cc\	.	4ccc\	sf
.	.	.	.	.	.	.	.	.	8a\	.	8cc\	sf	.	.	.	.	.	.	.	.
=45	=45	=45	=45	=45	=45	=45	=45	=45	=45	=45	=45	=45	=45	=45	=45	=45	=45	=45	=45	=45
*	*	*	*	*	*	*	*	*	*	*	*	*	*	*	*^	*	*	*	*	*
8D\	.	8Dyy\	.	4ff\	-len-	.	8d\L)	.	8r	.	8r	.	4.D\ 4.B-	p	4.b-/	4.f\	.	4.ff\	.	4.fff\	p
8r	.	8ryy	.	.	.	.	8d\J	.	8b-\	.	8ff\	.	.	.	.	.	.	.	.	.	.
8D\	.	8Dyy\	.	8ff\	-tem	.	8r	.	8r	.	8r	.	.	.	.	.	.	.	.	.	.
8r	.	8ryy	.	8r	.	.	8d\	.	8b-\	.	8ff\	.	8r	.	8r	8ryy	.	8r	.	8r	.
4E-\	sf	4E-yy\	sfyy	(16cc\LL	do	.	4e-\	sf	8r	.	8r	.	4E-\ 4c	.	4a/	4f\	.	(16cc\LL	.	16ccc\LL	<
.	.	.	.	16dd\	.	.	.	.	.	.	.	.	.	.	.	.	.	16dd\	.	16ddd\	.
.	.	.	.	16ee-\	.	.	.	.	8a\	.	8cc\	sf	.	.	.	.	.	16ee-\	.	16eee-\	.
.	.	.	.	16een\JJ)	.	.	.	.	.	.	.	.	.	.	.	.	.	16een\JJ)	.	16eeen\JJ	[[
=46	=46	=46	=46	=46	=46	=46	=46	=46	=46	=46	=46	=46	=46	=46	=46	=46	=46	=46	=46	=46	=46
!!LO:PB:g=original
8D\	.	8Dyy\	.	(4gg\	.	.	8d\L	.	8r	.	8r	.	4.D\ 4.B-	.	4.f/ 4.b-	2ryy	.	(4gg\	.	(4ggg\	.
!	!LO:HP:a	!	!LO:HP:a	!	!	!	!	!	!	!	!	!	!	!	!	!	!	!	!	!	!
8r	<	8ryy	<	.	.	.	8d\J	.	8b-\	.	8gg\	.	.	.	.	.	.	.	.	.	.
8D\	.	8Dyy\	.	8ff\)	.	.	8r	<	8r	.	8r	<	.	.	.	.	.	8ff\)	.	8fff\)	.
8r	.	8ryy	.	8r	.	.	8d\	.	8b-\	.	8ff\	.	8r	.	8r	.	.	8r	.	8r	.
4D\	[[	4Dyy\	[[	4ff#X\	.	.	8r	.	8r	.	8r	.	((4D\ 4c	.	(4cc/	(4a\	.	(4ff#X\	.	(4fff#X\	.
.	.	.	.	.	.	.	8a\	.	8cc\	.	8ff#X\	[[	.	.	.	.	.	.	.	.	.
*	*	*	*	*	*	*	*	*	*	*	*	*	*	*	*v	*v	*	*	*	*	*
=47	=47	=47	=47	=47	=47	=47	=47	=47	=47	=47	=47	=47	=47	=47	=47	=47	=47	=47	=47	=47
8E-\	.	8E-yy\	.	8.gg\L	.	.	8r	[[	8r	.	8r	.	8E-\)) 8B-	.	8g/)) 8b-	.	8gg\)	.	8ggg\)	.
8r	.	8ryy	.	.	.	.	8g\	f	8b-\	.	8gg\	f	8r	.	8r	.	8r	.	8r	.
.	.	.	.	16bb-\Jk	.	.	.	.	.	.	.	.	.	.	.	.	.	.	.	.
8En\	f	8Enyy\	fyy	8bb-\	.	.	8r	.	8r	f	8r	.	4En\ 4B-	f	4b-\ 4gg	f	4bb-\	f	4ccc#X\	f
8r	.	8ryy	.	8r	.	.	8g\	.	8cc#X\	.	8b-\ 8bb-	.	.	.	.	.	.	.	.	.
4E\	p	4Eyy\	pyy	(8.b-\L	.	.	8r	.	8r	.	8r	.	4r	.	4r	.	4r	.	4r	.
.	.	.	.	.	.	.	8g\	p	8b-\	.	8cc\	p	.	.	.	.	.	.	.	.
.	.	.	.	16cc\Jk	.	.	.	.	.	.	.	.	.	.	.	.	.	.	.	.
=48	=48	=48	=48	=48	=48	=48	=48	=48	=48	=48	=48	=48	=48	=48	=48	=48	=48	=48	=48	=48
8F\	.	8Fyy\	.	(2dd\)	.	.	8r	.	8r	.	8r	.	2.r	.	2.r	.	2.r	.	2.r	.
8r	.	8ryy	.	.	.	.	8f\	.	8b-\	.	8dd\	.	.	.	.	.	.	.	.	.
8F\	.	8Fyy\	.	.	.	.	8r	.	8r	.	8r	.	.	.	.	.	.	.	.	.
8r	.	8ryy	.	.	.	.	8f\	.	8f/	.	8b-\	.	.	.	.	.	.	.	.	.
.	.	.	.	>8qdd/	.	.	.	.	.	.	.	.	.	.	.	.	.	.	.	.
8FF/	.	8FFyy/	.	8.cc\L	.	.	8r	.	8r	.	8r	.	.	.	.	.	.	.	.	.
8r	.	8ryy	.	.	.	.	8c\	.	8e-/	.	8a\	.	.	.	.	.	.	.	.	.
.	.	.	.	16b-\Jk	.	.	.	.	.	.	.	.	.	.	.	.	.	.	.	.
=49	=49	=49	=49	=49	=49	=49	=49	=49	=49	=49	=49	=49	=49	=49	=49	=49	=49	=49	=49	=49
!LO:TX:t=P:problem:brak wyświetlania łuku	!	!	!	!	!	!	!LO:TX:t=P:problem:brak wyświetlania łuku	!	!	!	!	!	!	!	!	!	!	!	!	!
(16BB-/LL	.	(yy16BB-yy/LL	.	8b-\)	.	.	(16B-/LL	.	8d/	.	8b-\	.	2.r	.	2.r	.	2.r	.	2.r	.
16AA/	.	16AAyy/	.	.	.	.	16A/	.	.	.	.	.	.	.	.	.	.	.	.	.
16BB-/	.	16BB-yy/	.	8r	.	.	16B-/	.	8r	.	8r	.	.	.	.	.	.	.	.	.
16AA/JJ	.	16AAyy/JJ	.	.	.	.	16A/JJ	.	.	.	.	.	.	.	.	.	.	.	.	.
*rep	*	*rep	*	*	*	*	*rep	*	*	*	*	*	*	*	*	*	*	*	*	*
16BB-/LL	.	16BB-yy/LL	.	4r	.	.	16B-/LL	.	4r	.	4r	.	.	.	.	.	.	.	.	.
16AA/	.	16AAyy/	.	.	.	.	16A/	.	.	.	.	.	.	.	.	.	.	.	.	.
16BB-/	.	16BB-yy/	.	.	.	.	16B-/	.	.	.	.	.	.	.	.	.	.	.	.	.
16AA/JJ	.	16AAyy/JJ	.	.	.	.	16A/JJ	.	.	.	.	.	.	.	.	.	.	.	.	.
*Xrep	*	*Xrep	*	*	*	*	*Xrep	*	*	*	*	*	*	*	*	*	*	*	*	*
*rep	*	*rep	*	*	*	*	*rep	*	*	*	*	*	*	*	*	*	*	*	*	*
16BB-/LL	.	16BB-yy/LL	.	4r	.	.	16B-/LL	.	4r	.	4r	.	.	.	.	.	.	.	.	.
16AA/	.	16AAyy/	.	.	.	.	16A/	.	.	.	.	.	.	.	.	.	.	.	.	.
16BB-/	.	16BB-yy/	.	.	.	.	16B-/	.	.	.	.	.	.	.	.	.	.	.	.	.
16AA/JJ)	.	16AAyy/JJ)	.	.	.	.	16A/JJ)	.	.	.	.	.	.	.	.	.	.	.	.	.
*Xrep	*	*Xrep	*	*	*	*	*Xrep	*	*	*	*	*	*	*	*	*	*	*	*	*
=50	=50	=50	=50	=50	=50	=50	=50	=50	=50	=50	=50	=50	=50	=50	=50	=50	=50	=50	=50	=50
!LO:TX:t=P:problem:brak wyświetlania łuku	!	!	!	!	!	!LO:DY:a	!LO:TX:t=P:problem:brak wyświetlania łuku	!	!	!	!	!	!	!	!	!LO:DY:a	!	!	!	!
(16BB-/LL	.	(yy16BB-yy/LL	.	2a-X\	.	<	(16B-/LL	p	(2f/	.	(2a-X/	p	2.r	.	(2f/	p	(2a-X/	.	(2aa-X\	p <
16AA/	.	16AAyy/	.	.	.	.	16A/	.	.	.	.	.	.	.	.	.	.	.	.	.
16BB-/	.	16BB-yy/	.	.	.	.	16B-/	.	.	.	.	.	.	.	.	.	.	.	.	.
16AA/JJ	.	16AAyy/JJ	.	.	.	.	16A/JJ	.	.	.	.	.	.	.	.	.	.	.	.	.
*rep	*	*rep	*	*	*	*	*rep	*	*	*	*	*	*	*	*	*	*	*	*	*
16BB-/LL	.	16BB-yy/LL	.	.	.	.	16B-/LL	.	.	.	.	.	.	.	.	.	.	.	.	.
16AA/	.	16AAyy/	.	.	.	.	16A/	.	.	.	.	.	.	.	.	.	.	.	.	.
16BB-/	.	16BB-yy/	.	.	.	.	16B-/	.	.	.	.	.	.	.	.	.	.	.	.	.
16AA/JJ	.	16AAyy/JJ	.	.	.	.	16A/JJ	.	.	.	.	.	.	.	.	.	.	.	.	.
*Xrep	*	*Xrep	*	*	*	*	*Xrep	*	*	*	*	*	*	*	*	*	*	*	*	*
*rep	*	*rep	*	*	*	*	*rep	*	*	*	*	*	*	*	*	*	*	*	*	*
16BB-/LL	.	16BB-yy/LL	.	4ff\	.	[[	16B-/LL	.	4a-X/)	.	4ff\)	.	.	.	4a-X/)	.	4ff\)	.	4fff\)	[[
16AA/	.	16AAyy/	.	.	.	.	16A/	.	.	.	.	.	.	.	.	.	.	.	.	.
16BB-/	.	16BB-yy/	.	.	.	.	16B-/	.	.	.	.	.	.	.	.	.	.	.	.	.
16AA/JJ)	.	16AAyy/JJ)	.	.	.	.	16A/JJ)	.	.	.	.	.	.	.	.	.	.	.	.	.
*Xrep	*	*Xrep	*	*	*	*	*Xrep	*	*	*	*	*	*	*	*	*	*	*	*	*
=51	=51	=51	=51	=51	=51	=51	=51	=51	=51	=51	=51	=51	=51	=51	=51	=51	=51	=51	=51	=51
!!LO:LB:g=original
*	*	*	*	*	*	*	*	*	*	*	*	*	*	*	*^	*	*	*	*	*
!LO:TX:t=P:problem:brak wyświetlania łuku	!	!	!	!	!	!	!LO:TX:t=P:problem:brak wyświetlania łuku	!	!	!	!	!	!	!	!	!	!	!	!	!	!
(16BB-/LL	.	(yy16BB-yy/LL	.	4ff\	.	.	(16B-/LL	.	4.g/	.	(4ff\	>	2.r	.	4.g/	4.g\	.	(4ff\	.	(4fff\	>
16AA/	.	16AAyy/	.	.	.	.	16A/	.	.	.	.	.	.	.	.	.	.	.	.	.	.
16BB-/	.	16BB-yy/	.	.	.	.	16B-/	.	.	.	.	.	.	.	.	.	.	.	.	.	.
16AA/JJ	.	16AAyy/JJ	.	.	.	.	16A/JJ	.	.	.	.	.	.	.	.	.	.	.	.	.	.
*rep	*	*rep	*	*	*	*	*rep	*	*	*	*	*	*	*	*	*	*	*	*	*	*
16BB-/LL	.	16BB-yy/LL	.	8ee-\	.	.	16B-/LL	.	.	.	8ee-\)	]	.	.	.	.	.	8ee-\)	.	8eee-\)	]
16AA/	.	16AAyy/	.	.	.	.	16A/	.	.	.	.	.	.	.	.	.	.	.	.	.	.
16BB-/	.	16BB-yy/	.	8r	.	.	16B-/	.	8r	.	8r	.	.	.	8r	4.ryy	.	8r	.	8r	.
16AA/JJ	.	16AAyy/JJ	.	.	.	.	16A/JJ	.	.	.	.	.	.	.	.	.	.	.	.	.	.
*Xrep	*	*Xrep	*	*	*	*	*Xrep	*	*	*	*	*	*	*	*	*	*	*	*	*	*
*rep	*	*rep	*	*	*	*	*rep	*	*	*	*	*	*	*	*	*	*	*	*	*	*
16BB-/LL	.	16BB-yy/LL	.	4r	.	.	16B-/LL	.	4r	.	4r	.	.	.	4r	.	.	4r	.	4r	.
16AA/	.	16AAyy/	.	.	.	.	16A/	.	.	.	.	.	.	.	.	.	.	.	.	.	.
16BB-/	.	16BB-yy/	.	.	.	.	16B-/	.	.	.	.	.	.	.	.	.	.	.	.	.	.
16AA/JJ)	.	16AAyy/JJ)	.	.	.	.	16A/JJ)	.	.	.	.	.	.	.	.	.	.	.	.	.	.
*Xrep	*	*Xrep	*	*	*	*	*Xrep	*	*	*	*	*	*	*	*	*	*	*	*	*	*
*	*	*	*	*	*	*	*	*	*	*	*	*	*	*	*v	*v	*	*	*	*	*
=52	=52	=52	=52	=52	=52	=52	=52	=52	=52	=52	=52	=52	=52	=52	=52	=52	=52	=52	=52	=52
*	*	*	*	*	*	*	*rep	*	*	*	*	*	*	*	*	*	*	*	*	*
!LO:TX:t=P:problem:brak wyświetlania łuku	!	!	!	!	!	!	!	!	!	!	!	!	!	!	!	!	!	!	!	!
(16BB-/LL	.	(yy16BB-yy/LL	.	2g-X/	.	.	(16B-/LL	.	(2e-/	.	(2g-X/	<	2.r	.	2e-/	.	(2g-X/	.	(2gg-X\	<
16AA/	.	16AAyy/	.	.	.	.	16A/	.	.	.	.	.	.	.	.	.	.	.	.	.
16BB-/	.	16BB-yy/	.	.	.	.	16B-/	.	.	.	.	.	.	.	.	.	.	.	.	.
16AA/JJ	.	16AAyy/JJ	.	.	.	.	16A/JJ	.	.	.	.	.	.	.	.	.	.	.	.	.
*rep	*	*	*	*	*	*	*	*	*	*	*	*	*	*	*	*	*	*	*	*
16BB-/LL	.	16BB-yy/LL	.	.	.	.	16B-/LL	.	.	.	.	.	.	.	.	.	.	.	.	.
16AA/	.	16AAyy/	.	.	.	.	16A/	.	.	.	.	.	.	.	.	.	.	.	.	.
16BB-/	.	16BB-yy/	.	.	.	.	16B-/	.	.	.	.	.	.	.	.	.	.	.	.	.
16AA/JJ	.	16AAyy/JJ	.	.	.	.	16A/JJ	.	.	.	.	.	.	.	.	.	.	.	.	.
*Xrep	*	*	*	*	*	*	*	*	*	*	*	*	*	*	*	*	*	*	*	*
*rep	*	*	*	*	*	*	*	*	*	*	*	*	*	*	*	*	*	*	*	*
16BB-/LL	.	16BB-yy/LL	.	4ee-\	.	.	16B-/LL	.	4g-X/)	.	4ee-\)	.	.	.	4g-X/	.	4ee-\)	.	4eee-\)	.
16AA/	.	16AAyy/	.	.	.	.	16A/	.	.	.	.	.	.	.	.	.	.	.	.	.
16BB-/	.	16BB-yy/	.	.	.	.	16B-/	.	.	.	.	.	.	.	.	.	.	.	.	.
16AA/JJ)	.	16AAyy/JJ)yy	.	.	.	.	16A/JJ)	.	.	.	.	[	.	.	.	.	.	.	.	[ >
*Xrep	*	*	*	*	*	*	*Xrep	*	*	*	*	*	*	*	*	*	*	*	*	*
=53	=53	=53	=53	=53	=53	=53	=53	=53	=53	=53	=53	=53	=53	=53	=53	=53	=53	=53	=53	=53
(16BB-/LL	.	(yy16BB-yy/LL	.	4ee-\	.	.	(16B-/LL	.	4.f/	.	4ee-\	>	(16B-\LL	p	4.f/	.	(4ee-\	.	(4eee-\	.
16AA/	.	16AAyy/	.	.	.	.	16A/	.	.	.	.	.	16A\	.	.	.	.	.	.	.
16BB-/	.	16BB-yy/	.	.	.	.	16B-/	.	.	.	.	.	16B-\	.	.	.	.	.	.	.
16AA/JJ	.	16AAyy/JJ	.	.	.	.	16A/JJ	.	.	.	.	.	16A\JJ	.	.	.	.	.	.	.
8BB-/)	.	8BB-yy/)yy	.	8dd\	.	.	8B-/)	.	.	.	8dd\	]	8B-\)	.	.	.	8dd\)	.	8ddd\)	.
8r	.	8ryy	.	8r	.	.	8r	.	8r	.	8r	.	8r	.	8r	.	8r	.	8r	]
(8G\L	.	(yy8Gyy\L	.	([4dd\	.	.	(8g\L	.	(8b-/L	.	[4dd\	.	4r	.	4r	.	4r	.	4r	.
8F\J	.	8Fyy\J	.	.	.	.	8f\J	.	8a/J	.	.	.	.	.	.	.	.	.	.	.
=54	=54	=54	=54	=54	=54	=54	=54	=54	=54	=54	=54	=54	=54	=54	=54	=54	=54	=54	=54	=54
4.E-\)	.	4.E-yy\)yy	.	8dd\]	.	.	4.e-\	.	[2.g/)	.	8dd\]	.	2.r	.	2.r	.	2.r	.	2.r	.
.	.	.	.	4cc\	.	.	.	.	.	.	4cc|\	.	.	.	.	.	.	.	.	.
(8D|\	.	(yy8Dyy|\	.	8bn\)	.	.	(8d|\)	.	.	.	(8bn\	.	.	.	.	.	.	.	.	.
8E-\L	.	8E-yy\L	.	(8cc\L	.	.	8e-\L	.	.	.	8cc\L	.	.	.	.	.	.	.	.	.
8BBn\J)	.	8BBnyy\J)yy	.	8dd\J)	.	.	8Bn\J)	.	.	.	8dd\J)	.	.	.	.	.	.	.	.	.
=55	=55	=55	=55	=55	=55	=55	=55	=55	=55	=55	=55	=55	=55	=55	=55	=55	=55	=55	=55	=55
(8C/L	.	(yy8Cyy/L	.	4.ff\	.	.	(8c/L	.	2g/]	.	(4.ff\	.	2.r	.	2.r	.	2.r	.	2.r	.
8BBn/	.	8BBnyy/	.	.	.	.	8Bn/	.	.	.	.	.	.	.	.	.	.	.	.	.
8C/)	.	8Cyy/)yy	.	.	.	.	8c/)	.	.	.	.	.	.	.	.	.	.	.	.	.
(8C|/	.	(yy8Cyy|/	.	8ee-\	.	.	(8c|/	.	.	.	8ee-\L	.	.	.	.	.	.	.	.	.
8BB/	.	8BByy/	.	8dd\	.	.	8B/	.	4g/	.	8dd\	.	.	.	.	.	.	.	.	.
8C/J)	.	8Cyy/J)yy	.	8cc\	.	.	8c/J)	.	.	.	8cc\J)	.	.	.	.	.	.	.	.	.
=56	=56	=56	=56	=56	=56	=56	=56	=56	=56	=56	=56	=56	=56	=56	=56	=56	=56	=56	=56	=56
!!LO:PB:g=original
!LO:TX:t=P:problem:mixed beam	!	!LO:TX:t=P:problem:mixed beam	!	!	!	!	!	!	!	!	!	!	!	!	!	!	!	!	!	!
8F\L	.	8Fyy\L	.	(8.b-\L	pla-	.	8.d/L	.	4.f/	.	(8.b-\L	.	4r	.	4r	.	4r	.	4r	.
8FF/J	.	8FFyy/J	.	.	.	.	.	.	.	.	.	.	.	.	.	.	.	.	.	.
.	.	.	.	16dd\Jk)	.	.	16B-/Jk	.	.	.	16dd\Jk	.	.	.	.	.	.	.	.	.
8F\	.	8Fyy\	.	8cc\	-ri	.	8A/	.	.	.	8cc\)	.	4r	.	4r	.	4r	.	4r	.
8r	.	8ryy	.	8r	.	.	8r	.	8r	.	8r	.	.	.	.	.	.	.	.	.
!	!LO:DY:a	!	!LO:DY:a	!	!	!	!	!	!	!	!	!	!	!	!	!	!	!	!	!
(4E-\	sf	(yy4E-yy\	sfyy	4cc\	do-	.	(4e-\	sf <	8r	.	8r	.	4E-\ 4c	.	4f/ 4a	.	4cc\	.	4ccc\	<
.	.	.	.	.	.	.	.	.	8a\	.	8cc\	sf	.	.	.	.	.	.	.	.
=57	=57	=57	=57	=57	=57	=57	=57	=57	=57	=57	=57	=57	=57	=57	=57	=57	=57	=57	=57	=57
*	*	*	*	*	*	*	*	*	*	*	*	*	*	*	*^	*	*	*	*	*
8D\)	.	8Dyy\)yy	.	4ff\	-len-	.	8d\L)	.	8r	.	8r	.	4.D\ 4.B-	.	4.f/ 4.b-	2ryy	.	4.ff\	.	4.fff\	[[
8r	.	8ryy	.	.	.	.	8d'\J	[	8b-\	.	8ff\	.	.	.	.	.	.	.	.	.	.
8D\	.	8Dyy\	.	8ff\	-tem	.	8r	.	8r	.	8r	.	.	.	.	.	.	.	.	.	.
8r	.	8ryy	.	8r	.	.	8d\	.	8b-\	.	8ff\	.	8r	.	8r	.	.	8r	.	8r	.
!	!LO:DY:a	!	!LO:DY:a	!	!	!	!	!	!	!	!	!	!	!	!	!	!	!	!	!	!
(4E-\	sf	(yy4E-yy\	sfyy	(16cc\LL	do-	.	8r	.	8r	.	8r	.	4E-\ 4c	.	4a/	4f\	.	(16cc\LL	.	(16ccc\LL	<
.	.	.	.	16dd\	.	.	.	.	.	.	.	.	.	.	.	.	.	16dd\	.	16ddd\	.
.	.	.	.	16ee-\	.	.	(8e-\	sf	8a\	.	8cc\	sf	.	.	.	.	.	16ee-\	.	16eee-\	.
.	.	.	.	16een\JJ)	.	.	.	.	.	.	.	.	.	.	.	.	.	16een\JJ)	.	16eeen\JJ)	[[
=58	=58	=58	=58	=58	=58	=58	=58	=58	=58	=58	=58	=58	=58	=58	=58	=58	=58	=58	=58	=58	=58
8D\)	.	8Dyy\)yy	.	4gg\	-len-	.	8d\L	>	8r	.	8r	.	4.D\ 4.B-	.	4.b-/	4.f\	.	(4gg\	.	(4ggg\	>
!	!	!	!	!	!	!	!	!	!	!	!	!LO:HP:t=cresc&colon;	!	!	!	!	!	!	!	!	!
8r	.	8ryy	.	.	.	.	8d\J)	.	8b-\	.	8gg\	<	.	.	.	.	.	.	.	.	.
8D\	.	8Dyy\	.	8ff\	-tem	.	8r	]	8r	.	8r	.	.	.	.	.	.	8ff\)	.	8fff\)	.
!	!	!	!	!	!	!	!	!LO:HP:t=cresc	!	!	!	!	!	!	!	!	!	!	!	!	!
8r	.	8ryy	.	8r	.	.	8d\	<	8b-\	.	8ff\	.	8r	.	8r	8ryy	.	8r	.	8r	]
!	!LO:HP:a	!	!LO:HP:a	!	!	!LO:HP:b	!	!	!	!	!	!	!	!	!	!	!	!	!	!	!
(4D\	<	(yy4Dyy\	<	4ff#X\	do-	<	8r	.	8r	<	8r	<	4D\ 4c	.	4cc/	4a\	.	(4ff#X\	<	(4fff#X\	.
.	.	.	.	.	.	.	8a\	.	8d/ 8cc	.	8ff#X\	.	.	.	.	.	.	.	.	.	.
=59	=59	=59	=59	=59	=59	=59	=59	=59	=59	=59	=59	=59	=59	=59	=59	=59	=59	=59	=59	=59	=59
8E-\)	[	8E-yy\)yy	[	(8.gg\L	-len-	[[	8r	.	8r	[	8r	.	8E-\ 8B-	.	8b-/	8g\	.	8gg\)	.	8ggg\)	.
8r	.	8ryy	.	.	.	.	8g\	.	8e-/ 8b-	.	8gg\	[ f	8r	.	8r	8ryy	.	8r	[	8r	.
.	.	.	.	16bb-\Jk)	.	.	.	.	.	.	.	.	.	.	.	.	.	.	.	.	.
!	!	!	!	!	!	!LO:DY:a	!	!	!	!	!	!	!	!	!	!	!	!	!	!	!
8En\	f	8Enyy\	fyy	8bb-\	-tem	f	8r	.	8r	.	8r	.	4En\ 4B-	.	4cc#X/	4g\	.	4bb-\	f	4ccc#X\	.
8r	.	8ryy	.	8r	.	.	8en\	.	8g/ 8cc#X	f	8b-\ 8bb-	.	.	.	.	.	.	.	.	.	.
4G;\	p	4Gyy;\	pyy	(4cc#X;\	con	.	4G;\ 4e	p	4b-;\	p	4cc#X;\	p	4r;	.	4r;	4ryy	.	4r;	.	4r;	.
*	*	*	*	*	*	*	*	*	*	*	*	*	*	*	*v	*v	*	*	*	*	*
=60	=60	=60	=60	=60	=60	=60	=60	=60	=60	=60	=60	=60	=60	=60	=60	=60	=60	=60	=60	=60
!!LO:LB:g=original
8F\	.	8Fyy\	.	16ee-\LL	.	.	8r	.	8r	.	8r	.	2.r	.	2.r	.	2.r	.	2.r	.
.	.	.	.	16dd\	.	.	.	.	.	.	.	.	.	.	.	.	.	.	.	.
8r	.	8ryy	.	16b-\	.	.	8f\	.	8b-\	.	8dd\	.	.	.	.	.	.	.	.	.
.	.	.	.	16g\JJ	.	.	.	.	.	.	.	.	.	.	.	.	.	.	.	.
8F\	.	8Fyy\	.	8f/L	.	.	8r	.	8r	.	8r	.	.	.	.	.	.	.	.	.
8r	.	8ryy	.	32g/LL	.	.	8d\	.	8f/	.	8b-\	.	.	.	.	.	.	.	.	.
.	.	.	.	32f/	.	.	.	.	.	.	.	.	.	.	.	.	.	.	.	.
.	.	.	.	32en/	.	.	.	.	.	.	.	.	.	.	.	.	.	.	.	.
.	.	.	.	32f/JJJ)	.	.	.	.	.	.	.	.	.	.	.	.	.	.	.	.
8FF/	.	8FFyy/	.	8.dd\	Fi-	.	8r	.	8r	.	8r	.	.	.	.	.	.	.	.	.
8r	.	8ryy	.	.	.	.	8c\	.	8e-/	.	8a\	.	.	.	.	.	.	.	.	.
.	.	.	.	16cc\	-li-	.	.	.	.	.	.	.	.	.	.	.	.	.	.	.
=61	=61	=61	=61	=61	=61	=61	=61	=61	=61	=61	=61	=61	=61	=61	=61	=61	=61	=61	=61	=61
8BB-/	.	8BB-yy/	.	4b-\	-o.	.	4B-/	.	4d/	.	4b-\	.	8r	.	2.r	.	2.r	.	2.r	.
!LO:TX:t=P:problem:mixed beam	!	!LO:TX:t=P:problem:mixed beam	!	!	!	!	!	!	!	!	!	!	!	!	!	!	!	!	!	!
!	!	!	!	!	!	!	!	!	!	!	!	!	!LO:TX:t=P:problem:mixed beam	!LO:DY:a	!	!	!	!	!	!
8D|\L	.	8Dyy|\L	.	.	.	.	.	.	.	.	.	.	8D'\L	p	.	.	.	.	.	.
(8G\	.	(yy8Gyy\	.	4r	.	.	4r	.	4r	.	4r	.	(8G\	.	.	.	.	.	.	.
8F\	.	8Fyy\	.	.	.	.	.	.	.	.	.	.	8F\	.	.	.	.	.	.	.
8D\	.	8Dyy\	.	4r	.	.	4r	.	4r	.	4r	.	8D\)	.	.	.	.	.	.	.
8FF'/J)	.	8FFyy'/J)yy	.	.	.	.	.	.	.	.	.	.	8FF'/J	.	.	.	.	.	.	.
=62	=62	=62	=62	=62	=62	=62	=62	=62	=62	=62	=62	=62	=62	=62	=62	=62	=62	=62	=62	=62
4BB-/	p	4BB-yy/	pyy	2.r	.	.	4r	.	4r	.	4r	.	4BB-/	.	4r	.	4r	.	4r	.
4F\	.	4Fyy\	.	.	.	.	(4B-'\ 4f	.	(>4f'/ 4dd	.	(4b-'\ 4bb-	p	4F\	.	(4b-'\ 4dd	p	(4bb-'\	.	(4bb-'\	p
4D\	.	4Dyy\	.	.	.	.	4B-'\) 4f	.	4f'/) 4dd	.	4b-'\) 4bb-	.	4D\	.	4b-'\) 4dd	.	4bb-'\)	.	4bb-'\)	.
=63	=63	=63	=63	=63	=63	=63	=63	=63	=63	=63	=63	=63	=63	=63	=63	=63	=63	=63	=63	=63
*	*	*	*	*	*	*	*	*	*	*	*	*	*	*	*^	*	*	*	*	*
2.BB-/	.	2.BB-yy/	.	2.r	.	.	2.B-\ 2.f	.	2.f/ 2.dd	.	2.b-\ 2.bb-	.	2.BB-/	.	2.dd;/	2.b-\	.	2.bb-;\	.	2.bb-\	.
*	*	*	*	*	*	*	*	*	*	*	*	*	*	*	*v	*v	*	*	*	*	*
!!LO:TX:b:i:t=Seque\n No 4.
==	==	==	==	==	==	==	==	==	==	==	==	==	==	==	==	==	==	==	==	==
*-	*-	*-	*-	*-	*-	*-	*-	*-	*-	*-	*-	*-	*-	*-	*-	*-	*-	*-	*-	*-
!!!system-decoration: [(s1,s2,s3,s4{s5,s6}s7,s8{s9,s10})]
!!!RDF**kern: | = vertical stroke
!!!RDF**kern: > = above
!!!RDF**kern: < = below
!!!ENC: Kamil Watkowski
!!!END: 2021-08-10
